assets/img/icons/skills/css3.svg

<svg width="46" height="65" viewBox="0 0 46 65" fill="none" xmlns="http://www.w3.org/2000/svg">
<path d="M22.9719 65L4.18634 59.7793L0 12.7742H46.0001L41.8093 59.7722L22.9719 65Z" fill="#4353AD"/>
<path d="M38.2216 56.7794L41.8025 16.6177H22.9999V61.0039L38.2216 56.7794Z" fill="#485FB5"/>
<path d="M23 49.0235L22.9747 49.03L16.5613 47.2964L16.1513 42.6987H10.3704L11.1771 51.7505L22.9735 55.0288L23 55.0215V49.0235ZM8.55991 22.3827L9.08337 28.1476H23V22.3827H8.55991ZM9.59704 34.051L10.1131 39.816H23V34.051H9.59704Z" fill="#EDEDED"/>
<path d="M27.5654 6.38962e-05H34.5403V2.53905H30.4824V3.04709H34.5403V8.88672H27.5654V6.22052H31.6236V5.71288H27.5656V6.38962e-05H27.5654ZM19.1956 6.38962e-05H26.1703V2.53905H22.1124V3.04709H26.1703V8.88672H19.1958V6.22052H23.2538V5.71288H19.1955V6.38962e-05H19.1956ZM10.8259 6.38962e-05H17.8005V2.91988H13.7427V5.84009H17.8009V8.75991H10.8259V6.38962e-05Z" fill="#100F0D"/>
<path d="M36.3662 34.0512L37.4057 22.3829H22.9802V28.1477H31.0947L30.5708 34.0512H22.9802V39.8162H30.0715L29.4026 47.2932L22.98 49.0284V55.0261L34.7856 51.7507L34.872 50.7769L36.2257 35.5992L36.3662 34.0512Z" fill="white"/>
</svg>

<svg width="46" height="65" fill="none" xmlns="http://www.w3.org/2000/svg"><path d="M22.972 65 4.186 59.78 0 12.773h46l-4.19 46.998L22.971 65Z" fill="#4353AD"/><path d="m38.222 56.78 3.58-40.162H23v44.386l15.222-4.225Z" fill="#485FB5"/><path d="m23 49.023-.025.007-6.414-1.734-.41-4.597h-5.78l.806 9.052 11.797 3.278.026-.008v-5.998ZM8.56 22.383l.523 5.765H23v-5.765H8.56ZM9.597 34.05l.516 5.765H23V34.05H9.597Z" fill="#EDEDED"/><path d="M27.565 0h6.975v2.54h-4.058v.508h4.058v5.84h-6.975V6.22h4.059v-.508h-4.058V0Zm-8.37 0h6.975v2.54h-4.058v.508h4.058v5.84h-6.974V6.22h4.058v-.508h-4.059V0Zm-8.37 0h6.976v2.92h-4.058v2.92H17.8v2.92h-6.975V0Z" fill="#100F0D"/><path d="m36.366 34.051 1.04-11.668H22.98v5.765h8.115l-.524 5.903h-7.59v5.765h7.09l-.668 7.477-6.423 1.735v5.998l11.806-3.275.086-.974 1.354-15.178.14-1.548Z" fill="#fff"/></svg>
